X: 61
T:The Repeal of the Union
R:Reel
M:4/4
S:Paddy Canny, Clare (fiddle)
D:Private tape
Z:Bernie Stocks
N:As played
K:G %i.e. D with flat 'c'
D2(3.E.E.D ADED | BEcE dEBE | D2(3.E.E.D A2{F}ED | ~E2cE {F}EDD2 |
dD{F}ED AD{F}ED | BEcE dEBc | dc(3.B.B.c A2{F}ED | ~E2cE {F}EDD2 ||
~d3g fded | ABcA dBcB | Ad^cd fdcA | GEcE {F}EDD2 |
Ad~d2 fded | ABcd ef{a}ge | f-~g2e cAdB | B-c2d cAGE ||
<end>
<start>
